static/logos/narrativeBi-glyph-color.svg

<svg width="37" height="50" viewBox="0 0 37 50" fill="none" xmlns="http://www.w3.org/2000/svg">
<path fill-rule="evenodd" clip-rule="evenodd" d="M5.83595 17.5C5.83795 15.7537 6.20584 14.0271 6.9159 12.4316C7.62599 10.8362 8.66249 9.40722 9.9586 8.23683C11.2547 7.06647 12.7817 6.18065 14.4411 5.63652C16.1005 5.09238 17.8556 4.90198 19.5929 5.0776C21.3304 5.25323 23.0119 5.79097 24.5289 6.65617C26.0458 7.52135 27.3646 8.69482 28.4003 10.1009C29.4361 11.507 30.1656 13.1144 30.5421 14.8197C30.9186 16.525 30.9334 18.2903 30.5859 20.0017C27.3179 16.7903 22.9178 14.9937 18.3359 15C13.7542 14.9937 9.35394 16.7903 6.08595 20.0017C5.91914 19.1782 5.83539 18.3402 5.83595 17.5ZM2.51929 25C1.40716 22.6563 0.832074 20.0942 0.835957 17.5C0.835957 7.835 8.67095 0 18.3359 0C28.0009 0 35.8359 7.835 35.8359 17.5C35.8359 20.1833 35.2309 22.7267 34.1526 25C35.2648 27.3437 35.8398 29.9058 35.8359 32.5C35.8359 42.165 28.0009 50 18.3359 50C8.67095 50 0.835957 42.165 0.835957 32.5C0.835957 29.8167 1.44096 27.2733 2.51929 25ZM30.5859 29.9983C30.9546 31.8138 30.9151 33.6885 30.4704 35.4868C30.0256 37.2852 29.1868 38.9622 28.0144 40.3965C26.8419 41.8308 25.3654 42.9867 23.6916 43.7803C22.0178 44.574 20.1884 44.9858 18.3359 44.9858C16.4835 44.9858 14.6541 44.574 12.9803 43.7803C11.3064 42.9867 9.8299 41.8308 8.65754 40.3965C7.48519 38.9622 6.64629 37.2852 6.20154 35.4868C5.75679 33.6885 5.71732 31.8138 6.08595 29.9983C9.35394 33.2097 13.7542 35.0063 18.3359 35C23.1059 35 27.4293 33.0917 30.5859 29.9983ZM28.3359 25C27.1728 26.5537 25.6631 27.8145 23.9271 28.6825C22.1913 29.5505 20.2768 30.0015 18.3359 30C16.3951 30.0015 14.4807 29.5502 12.7448 28.6823C11.0089 27.8143 9.4993 26.5535 8.33595 25C9.4993 23.4465 11.0089 22.1857 12.7448 21.3177C14.4807 20.4498 16.3951 19.9985 18.3359 20C20.2768 19.9985 22.1913 20.4495 23.9271 21.3175C25.6631 22.1855 27.1728 23.4463 28.3359 25Z" fill="#8D80D1"/>
</svg>

<svg xmlns="http://www.w3.org/2000/svg" width="47.36" height="64" fill="none" viewBox="0 0 37 50"><path fill="#8D80D1" fill-rule="evenodd" d="M5.836 17.5a12.5 12.5 0 1 1 24.75 2.502A17.443 17.443 0 0 0 18.336 15a17.443 17.443 0 0 0-12.25 5.002 12.558 12.558 0 0 1-.25-2.502ZM2.519 25a17.433 17.433 0 0 1-1.683-7.5C.836 7.835 8.671 0 18.336 0s17.5 7.835 17.5 17.5c0 2.683-.605 5.227-1.683 7.5a17.432 17.432 0 0 1 1.683 7.5c0 9.665-7.835 17.5-17.5 17.5S.836 42.165.836 32.5c0-2.683.605-5.227 1.683-7.5Zm28.067 4.998a12.5 12.5 0 1 1-24.5 0A17.443 17.443 0 0 0 18.336 35c4.77 0 9.093-1.908 12.25-5.002ZM28.336 25a12.478 12.478 0 0 1-10 5 12.481 12.481 0 0 1-10-5 12.482 12.482 0 0 1 10-5 12.48 12.48 0 0 1 10 5Z" clip-rule="evenodd"/></svg>
